X:592
T:Reel 592
M:4/4
K:Dmix
L:1/8
G| (3FED  (3EFG ABcd| (3edc dd cAAB|cdef g2ed|cAGE FDDG| (3FED Ec ADcD| (3DED Ad defg|afge fdec|ABcG EDD|g|fdeg fdec|Addc Addg|fdeg fdec|ABcd e2fg|agfa gfeg|fdec fdec| (3ABA BG AGFE| (3FED EA FDD|
